themes/default/assets/images/icons/mid/secure.svg

<?xml version="1.0" encoding="UTF-8"?>
<svg width="100px" height="75px" viewBox="0 0 100 75" version="1.1" xmlns="http://www.w3.org/2000/svg" xmlns:xlink="http://www.w3.org/1999/xlink">
    <!-- Generator: sketchtool 59 (101010) - https://sketch.com -->
    <title>438B882F-DC67-4BBC-925E-46AF3E390888</title>
    <desc>Created with sketchtool.</desc>
    <g id="Page-1" stroke="none" stroke-width="1" fill="none" fill-rule="evenodd">
        <g id="Icons" transform="translate(-614.000000, -2501.000000)" fill-rule="nonzero">
            <g id="mid-icon-secure" transform="translate(614.000000, 2501.000000)">
                <path d="M35.14,58.9342105 L29.28,58.9342105 L29.28,64.6875 L35.14,64.6875 L35.14,58.9342105 Z M33.74,63.3157895 L30.68,63.3157895 L30.68,60.3552632 L33.74,60.3552632 L33.74,63.3157895 Z" id="Shape" fill="#A8C5DD"></path>
                <path d="M44.06,58.9342105 L38.2,58.9342105 L38.2,64.6875 L44.06,64.6875 L44.06,58.9342105 Z M42.66,63.3157895 L39.6,63.3157895 L39.6,60.3552632 L42.66,60.3552632 L42.66,63.3157895 Z" id="Shape" fill="#A8C5DD"></path>
                <path d="M53,58.9342105 L47.12,58.9342105 L47.12,64.6875 L53,64.6875 L53,58.9342105 Z M51.6,63.3157895 L48.52,63.3157895 L48.52,60.3552632 L51.58,60.3552632 L51.6,63.3157895 Z" id="Shape" fill="#A8C5DD"></path>
                <path d="M61.9,58.9342105 L56,58.9342105 L56,64.6875 L61.9,64.6875 L61.9,58.9342105 Z M60.5,63.3157895 L57.44,63.3157895 L57.44,60.3552632 L60.5,60.3552632 L60.5,63.3157895 Z" id="Shape" fill="#A8C5DD"></path>
                <path d="M70.82,58.9342105 L65,58.9342105 L65,64.6875 L70.86,64.6875 L70.82,58.9342105 Z M69.42,63.3157895 L66.36,63.3157895 L66.36,60.3552632 L69.42,60.3552632 L69.42,63.3157895 Z" id="Shape" fill="#A8C5DD"></path>
                <path d="M94.72,50.3289474 L76.23,50.3289474 L76.23,43.9835526 L84.74,43.9835526 L92.09,40.0361842 C92.2545356,39.952522 92.377403,39.8062862 92.4302426,39.6312303 C92.4830822,39.4561744 92.4613275,39.2674266 92.37,39.1085526 C92.2817788,38.9337563 92.1227108,38.8039741 91.9321584,38.7513215 C91.741606,38.6986689 91.5373737,38.7280654 91.37,38.8322368 L84.37,42.6217105 L76.23,42.6217105 L76.23,36.2269737 L83.29,36.2269737 L83.29,18.5328947 C83.29,18.1513822 82.9765993,17.8421053 82.59,17.8421053 C82.2034007,17.8421053 81.89,18.1513822 81.89,18.5328947 L81.89,34.8552632 L76.23,34.8552632 L76.23,30.7006579 C76.2273515,29.745354 75.8402566,28.8302155 75.1538727,28.1565643 C74.4674887,27.4829131 73.5380413,27.1059318 72.57,27.1085526 L67.66,27.1085526 L67.66,18.2269737 C67.66,8.62920943 59.7757344,0.848684211 50.05,0.848684211 C40.3242656,0.848684211 32.44,8.62920943 32.44,18.2269737 L32.44,27.1085526 L27.44,27.1085526 C26.4719587,27.1059318 25.5425113,27.4829131 24.8561273,28.1565643 C24.1697434,28.8302155 23.7826485,29.745354 23.78,30.7006579 L23.78,34.8552632 L18.1,34.8552632 L18.1,18.5328947 C18.1,18.1513822 17.7865993,17.8421053 17.4,17.8421053 C17.0134007,17.8421053 16.7,18.1513822 16.7,18.5328947 L16.7,36.2269737 L23.81,36.2269737 L23.81,42.6019737 L14.64,42.6019737 L8.64,38.8421053 C8.48239769,38.7294823 8.28393441,38.687764 8.09350415,38.7272281 C7.90307388,38.7666923 7.73838111,38.8836699 7.64,39.0493421 C7.5258754,39.2048707 7.48360083,39.4007226 7.52359119,39.5886472 C7.56358154,39.7765718 7.68211888,39.9390976 7.85,40.0361842 L14.23,43.9835526 L23.8,43.9835526 L23.8,50.3289474 L5.28,50.3289474 C5.01179468,50.2971419 4.74898008,50.4204701 4.60469634,50.6458399 C4.4604126,50.8712098 4.4604126,51.1583955 4.60469634,51.3837654 C4.74898008,51.6091352 5.01179468,51.7324634 5.28,51.7006579 L23.81,51.7006579 L23.81,58.2532895 L14.24,58.2532895 L7.86,62.2006579 C7.69211888,62.2977445 7.57358154,62.4602703 7.53359119,62.6481949 C7.49360083,62.8361195 7.5358754,63.0319714 7.65,63.1875 C7.77665421,63.3878853 8.00072519,63.5078162 8.24,63.5032895 C8.37153945,63.5043007 8.50038446,63.4664994 8.61,63.3947368 L14.61,59.6348684 L23.78,59.6348684 L23.78,65.8815789 L20.69,65.8815789 C20.4217947,65.8497734 20.1589801,65.9731016 20.0146963,66.1984715 C19.8704126,66.4238413 19.8704126,66.7110271 20.0146963,66.9363969 C20.1589801,67.1617668 20.4217947,67.285095 20.69,67.2532895 L23.81,67.2532895 L23.81,70.0657895 C23.7295698,70.2414501 23.7295698,70.4427604 23.81,70.6184211 L23.81,71.4375 C23.8319562,73.4152342 25.4657836,75.0055375 27.47,75.0000144 L72.57,75.0000144 C73.5380413,75.0026209 74.4674887,74.6256395 75.1538727,73.9519883 C75.8402566,73.2783371 76.2273515,72.3631987 76.23,71.4078947 L76.23,67.2828947 L79.31,67.2828947 C79.5782053,67.3147002 79.8410199,67.191372 79.9853037,66.9660022 C80.1295874,66.7406323 80.1295874,66.4534466 79.9853037,66.2280768 C79.8410199,66.0027069 79.5782053,65.8793787 79.31,65.9111842 L76.23,65.9111842 L76.23,59.6644737 L84.39,59.6644737 L91.39,63.4539474 C91.4961667,63.504351 91.6121974,63.5312931 91.73,63.5328947 C91.9829458,63.5301657 92.2153161,63.3948336 92.34,63.1776316 C92.4313275,63.0187576 92.4530822,62.8300098 92.4002426,62.6549539 C92.347403,62.479898 92.2245356,62.3336622 92.06,62.25 L84.71,58.3026316 L76.23,58.3026316 L76.23,53.4572368 C76.27,53.3625 76.27,53.2559211 76.23,53.1611842 L76.23,51.7302632 L94.72,51.7302632 C94.9882053,51.7620687 95.2510199,51.6387405 95.3953037,51.4133706 C95.5395874,51.1880008 95.5395874,50.900815 95.3953037,50.6754452 C95.2510199,50.4500753 94.9882053,50.3267471 94.72,50.3585526 L94.72,50.3289474 Z M33.84,18.2565789 C33.84,9.42183968 41.0974642,2.25986842 50.05,2.25986842 C59.0025358,2.25986842 66.26,9.42183968 66.26,18.2565789 L66.26,27.1381579 L61.41,27.1381579 L61.41,18.75 C61.41,12.5585973 56.3239548,7.53947368 50.05,7.53947368 C43.7760452,7.53947368 38.69,12.5585973 38.69,18.75 L38.69,27.1578947 L33.84,27.1578947 L33.84,18.2565789 Z M60,18.75 L60,27.1578947 L40.09,27.1578947 L40.09,18.75 C40.5785681,13.6849714 44.8892368,9.81672575 50.045,9.81672575 C55.2007632,9.81672575 59.5114319,13.6849714 60,18.75 Z M74.83,71.4078947 C74.8244944,72.6357795 73.8142687,73.6282895 72.57,73.6282895 L27.47,73.6282895 C26.2257313,73.6282895 25.2155056,72.6357795 25.21,71.4078947 L25.21,70.9934211 L74.83,70.9934211 L74.83,71.4078947 Z M74.83,69.6217105 L25.21,69.6217105 L25.21,54 L74.83,54 L74.83,69.6217105 Z M74.83,35.2697368 C74.763421,35.4480888 74.763421,35.6440165 74.83,35.8223684 L74.83,52.5986842 L25.21,52.5986842 L25.21,35.5953947 C25.21,35.5953947 25.21,35.5953947 25.21,35.5953947 C25.21,35.5953947 25.21,35.5953947 25.21,35.5460526 L25.21,30.7006579 C25.2155056,29.4727732 26.2257313,28.4802632 27.47,28.4802632 L72.57,28.4802632 C73.8142687,28.4802632 74.8244944,29.4727732 74.83,30.7006579 L74.83,35.2697368 Z" id="Shape" fill="#A8C5DD"></path>
                <path d="M55.64,36.9177632 C55.6637849,34.1916217 53.6965195,31.8439372 50.9787024,31.3550893 C48.2608853,30.8662415 45.5807922,32.3780156 44.6284096,34.9371323 C43.676027,37.4962489 44.7275839,40.3604619 47.12,41.7236842 L47.12,49.7171053 L53,49.7171053 L53,41.625 C54.64107,40.6077292 55.6379584,38.8302331 55.64,36.9177632 Z M51.58,48.3552632 L48.52,48.3552632 L48.52,41.3486842 C48.52,41.3486842 48.52,41.2796053 48.52,41.2401316 C48.5236761,41.1941504 48.5236761,41.1479549 48.52,41.1019737 L48.45,40.9835526 C48.4300689,40.948431 48.4066182,40.9153708 48.38,40.8848684 L48.25,40.7861842 L48.17,40.7269737 C46.3787032,39.8966429 45.4003211,37.9604485 45.8061241,36.048921 C46.2119271,34.1373936 47.8955532,32.7515498 49.8739447,32.7005743 C51.8523362,32.6495989 53.6069511,33.9468526 54.1132819,35.8348779 C54.6196127,37.7229032 53.7449486,39.7068434 52,40.6282895 C51.821226,40.7163954 51.6925277,40.8796874 51.65,41.0723684 C51.6180467,41.1542919 51.6011163,41.2411717 51.6,41.3289474 L51.58,48.3552632 Z" id="Shape" fill="#032663"></path>
                <path d="M82.59,18.9868421 C80.9331458,18.9868421 79.59,17.6613693 79.59,16.0263158 C79.59,14.3912623 80.9331458,13.0657895 82.59,13.0657895 C84.2468542,13.0657895 85.59,14.3912623 85.59,16.0263158 C85.59,17.6613693 84.2468542,18.9868421 82.59,18.9868421 Z M82.59,14.4868421 C81.9419531,14.4868421 81.3579124,14.8726293 81.1108602,15.4638539 C80.8638079,16.0550786 81.00254,16.7349792 81.4622126,17.1857683 C81.9218851,17.6365574 82.6117074,17.7691987 83.2092543,17.5216953 C83.8068013,17.2741918 84.1940503,16.6954285 84.1900315,16.0559211 C84.1845015,15.1877488 83.469765,14.4868421 82.59,14.4868421 L82.59,14.4868421 Z" id="Shape" fill="#2969F6"></path>
                <path d="M97,53.9802632 C95.3431458,53.9802632 94,52.6547904 94,51.0197368 C94,49.3846833 95.3431458,48.0592105 97,48.0592105 C98.6568542,48.0592105 100,49.3846833 100,51.0197368 C100,52.6547904 98.6568542,53.9802632 97,53.9802632 L97,53.9802632 Z M97,49.4802323 C96.1176672,49.4857053 95.4063431,50.1950157 95.4099997,51.0657484 C95.4136846,51.936481 96.1309644,52.6399264 97.0133125,52.6381271 C97.8956607,52.636321 98.61,51.9299507 98.61,51.0592105 C98.61,50.6387322 98.4400654,50.235618 98.1378409,49.9392226 C97.8356164,49.6428272 97.4260764,49.4776352 97,49.4802323 Z" id="Shape" fill="#2969F6"></path>
                <path d="M81.6,69.5328947 C79.9431458,69.5328947 78.6,68.207422 78.6,66.5723684 C78.6,64.9373149 79.9431458,63.6118421 81.6,63.6118421 C83.2568542,63.6118421 84.6,64.9373149 84.6,66.5723684 C84.6,67.3575488 84.2839295,68.1105703 83.7213203,68.6657767 C83.1587112,69.220983 82.3956495,69.5328947 81.6,69.5328947 L81.6,69.5328947 Z M81.6,65.0328639 C80.7176672,65.0383369 80.0063431,65.7476473 80.0099997,66.61838 C80.0136846,67.4891126 80.7309644,68.192558 81.6133125,68.1907587 C82.4956607,68.1889525 83.21,67.4825823 83.21,66.6118421 C83.21,66.1913638 83.0400654,65.7882496 82.7378409,65.4918542 C82.4356164,65.1954588 82.0260764,65.0302667 81.6,65.0328639 L81.6,65.0328639 Z" id="Shape" fill="#2969F6"></path>
                <path d="M94.05,40.4605263 C92.8366133,40.4605263 91.7427044,39.7392172 91.2783614,38.6329444 C90.8140184,37.5266715 91.0706857,36.2532964 91.9286797,35.4065918 C92.7866736,34.5598872 94.0770271,34.3065971 95.1980503,34.7648303 C96.3190735,35.2230636 97.05,36.3025789 97.05,37.5 C97.05,39.1350535 95.7068542,40.4605263 94.05,40.4605263 Z M94.05,35.9605263 C93.4001916,35.9647344 92.8175037,36.3563681 92.5755469,36.9515297 C92.3335901,37.5466912 92.4804285,38.227153 92.9471118,38.6733932 C93.4137951,39.1196334 94.1076177,39.2430073 94.7027839,38.9855828 C95.2979502,38.7281582 95.6762316,38.141072 95.66,37.5 C95.6600083,37.0795217 95.4900654,36.6764074 95.1878409,36.3800121 C94.8856164,36.0836167 94.4760764,35.9184246 94.05,35.9210217 L94.05,35.9605263 Z" id="Shape" fill="#2969F6"></path>
                <path d="M94.05,67.6973684 C92.8366133,67.6973684 91.7427044,66.9760593 91.2783614,65.8697865 C90.8140184,64.7635136 91.0706857,63.4901385 91.9286797,62.6434339 C92.7866736,61.7967293 94.0770271,61.5434392 95.1980503,62.0016724 C96.3190735,62.4599057 97.05,63.539421 97.05,64.7368421 C97.05,66.3718956 95.7068542,67.6973684 94.05,67.6973684 Z M94.05,63.1973684 C93.1663699,63.2028355 92.4545339,63.9141598 92.4600304,64.7861633 C92.4655908,65.6581667 93.1863902,66.3606457 94.0700204,66.3552328 C94.9536507,66.349757 95.6655054,65.638451 95.66,64.7664474 C95.6680965,64.3408617 95.501727,63.9300778 95.1986148,63.6272381 C94.8955026,63.3243984 94.4813272,63.1551594 94.05,63.1578947 L94.05,63.1973684 Z" id="Shape" fill="#2969F6"></path>
                <path d="M17.4,18.9868421 C15.7431458,18.9868421 14.4,17.6613693 14.4,16.0263158 C14.4,14.3912623 15.7431458,13.0657895 17.4,13.0657895 C19.0568542,13.0657895 20.4,14.3912623 20.4,16.0263158 C20.4,17.6613693 19.0568542,18.9868421 17.4,18.9868421 Z M17.4,14.4868421 C16.7519531,14.4868421 16.1679124,14.8726293 15.9208602,15.4638539 C15.6738079,16.0550786 15.81254,16.7349792 16.2722126,17.1857683 C16.7318851,17.6365574 17.4217074,17.7691987 18.0192543,17.5216953 C18.6168013,17.2741918 19.0040503,16.6954285 19.0000315,16.0559211 C18.9945015,15.1877488 18.279765,14.4868421 17.4,14.4868421 L17.4,14.4868421 Z" id="Shape" fill="#2969F6"></path>
                <path d="M3,53.9802632 C1.34314575,53.9802632 0,52.6547904 0,51.0197368 C0,49.3846833 1.34314575,48.0592105 3,48.0592105 C4.65685425,48.0592105 6,49.3846833 6,51.0197368 C6,52.6547904 4.65685425,53.9802632 3,53.9802632 L3,53.9802632 Z M3,49.4802323 C2.11766718,49.4857053 1.40634312,50.1950157 1.4099997,51.0657484 C1.41368457,51.936481 2.13096435,52.6399264 3.01331252,52.6381271 C3.89566069,52.636321 4.61,51.9299507 4.61,51.0592105 C4.61,50.6387322 4.44006536,50.235618 4.13784086,49.9392226 C3.83561636,49.6428272 3.42607637,49.4776352 3,49.4802323 Z" id="Shape" fill="#2969F6"></path>
                <path d="M18.39,69.5328947 C16.7331458,69.5328947 15.39,68.207422 15.39,66.5723684 C15.39,64.9373149 16.7331458,63.6118421 18.39,63.6118421 C20.0468542,63.6118421 21.39,64.9373149 21.39,66.5723684 C21.39,67.3575488 21.0739295,68.1105703 20.5113203,68.6657767 C19.9487112,69.220983 19.1856495,69.5328947 18.39,69.5328947 L18.39,69.5328947 Z M18.39,65.0328639 C17.5076672,65.0383369 16.7963431,65.7476473 16.7999997,66.61838 C16.8036846,67.4891126 17.5209644,68.192558 18.4033125,68.1907587 C19.2856607,68.1889525 20,67.4825823 20,66.6118421 C20,66.1913638 19.8300654,65.7882496 19.5278409,65.4918542 C19.2256164,65.1954588 18.8160764,65.0302667 18.39,65.0328639 L18.39,65.0328639 Z" id="Shape" fill="#2969F6"></path>
                <path d="M5.94,40.4605263 C4.28314575,40.4605263 2.94,39.1350535 2.94,37.5 C2.94,35.8649465 4.28314575,34.5394737 5.94,34.5394737 C7.59685425,34.5394737 8.94,35.8649465 8.94,37.5 C8.94,38.2851804 8.62392948,39.0382019 8.06132034,39.5934082 C7.49871121,40.1486146 6.73564947,40.4605263 5.94,40.4605263 Z M5.94,35.9605263 C5.28926383,35.960727 4.70347511,36.3498368 4.45835318,36.9447094 C4.21323125,37.5395819 4.35761264,38.2216985 4.82353986,38.6700001 C5.28946707,39.1183018 5.98411171,39.2434718 6.5805181,38.986595 C7.17692448,38.7297182 7.55626837,38.1419732 7.54,37.5 C7.54,36.6279714 6.8236556,35.9210526 5.94,35.9210526 L5.94,35.9605263 Z" id="Shape" fill="#2969F6"></path>
                <path d="M5.94,67.6973684 C4.28314575,67.6973684 2.94,66.3718956 2.94,64.7368421 C2.94,63.1017886 4.28314575,61.7763158 5.94,61.7763158 C7.59685425,61.7763158 8.94,63.1017886 8.94,64.7368421 C8.94,65.5220225 8.62392948,66.275044 8.06132034,66.8302503 C7.49871121,67.3854567 6.73564947,67.6973684 5.94,67.6973684 Z M5.94,63.1973684 C5.29195312,63.1973809 4.70791238,63.5831556 4.46086015,64.1743802 C4.21380793,64.7656049 4.35253999,65.4455055 4.81221256,65.8962946 C5.27188513,66.3470837 5.96170738,66.479725 6.55925433,66.2322216 C7.15680129,65.9847181 7.54405029,65.4059548 7.54,64.7664474 C7.54805493,64.3425787 7.38304665,63.9333195 7.08211096,63.6307752 C6.78117528,63.3282309 6.36959573,63.1578202 5.94,63.1578947 L5.94,63.1973684 Z" id="Shape" fill="#2969F6"></path>
            </g>
        </g>
    </g>
</svg>

<svg width="100" height="75" xmlns="http://www.w3.org/2000/svg"><g fill-rule="nonzero" fill="none"><path d="M35.14 58.934h-5.86v5.754h5.86v-5.754zm-1.4 4.382h-3.06v-2.96h3.06v2.96zM44.06 58.934H38.2v5.754h5.86v-5.754zm-1.4 4.382H39.6v-2.96h3.06v2.96zM53 58.934h-5.88v5.754H53v-5.754zm-1.4 4.382h-3.08v-2.96h3.06l.02 2.96zM61.9 58.934H56v5.754h5.9v-5.754zm-1.4 4.382h-3.06v-2.96h3.06v2.96zM70.82 58.934H65v5.754h5.86l-.04-5.754zm-1.4 4.382h-3.06v-2.96h3.06v2.96z" fill="#A8C5DD"/><path d="M94.72 50.329H76.23v-6.345h8.51l7.35-3.948a.663.663 0 00.28-.928.708.708 0 00-1-.276l-7 3.79h-8.14v-6.395h7.06V18.533a.695.695 0 00-.7-.69c-.387 0-.7.308-.7.69v16.322h-5.66v-4.154a3.578 3.578 0 00-1.076-2.544 3.675 3.675 0 00-2.584-1.048h-4.91v-8.882C67.66 8.629 59.776.849 50.05.849c-9.726 0-17.61 7.78-17.61 17.378v8.882h-5a3.675 3.675 0 00-2.584 1.048A3.578 3.578 0 0023.78 30.7v4.154H18.1V18.533a.695.695 0 00-.7-.69c-.387 0-.7.308-.7.69v17.694h7.11v6.375h-9.17l-6-3.76a.697.697 0 00-1 .207.674.674 0 00.21.987l6.38 3.948h9.57v6.345H5.28a.703.703 0 00-.675.317.683.683 0 000 .738.703.703 0 00.675.317h18.53v6.552h-9.57l-6.38 3.948a.674.674 0 00-.21.987c.127.2.35.32.59.315a.666.666 0 00.37-.108l6-3.76h9.17v6.247h-3.09a.703.703 0 00-.675.316.683.683 0 000 .738.703.703 0 00.675.317h3.12v2.813a.663.663 0 000 .552v.82c.022 1.977 1.656 3.568 3.66 3.562h45.1a3.675 3.675 0 002.584-1.048 3.578 3.578 0 001.076-2.544v-4.125h3.08a.703.703 0 00.675-.317.683.683 0 000-.738.703.703 0 00-.675-.317h-3.08v-6.247h8.16l7 3.79c.106.05.222.077.34.079a.712.712 0 00.61-.355.663.663 0 00-.28-.928l-7.35-3.947h-8.48v-4.846a.38.38 0 000-.296v-1.43h18.49a.703.703 0 00.675-.318.683.683 0 000-.738.703.703 0 00-.675-.316v-.03zM33.84 18.257c0-8.835 7.257-15.997 16.21-15.997 8.953 0 16.21 7.162 16.21 15.997v8.881h-4.85V18.75c0-6.191-5.086-11.21-11.36-11.21-6.274 0-11.36 5.019-11.36 11.21v8.408h-4.85v-8.901zM60 18.75v8.408H40.09V18.75c.489-5.065 4.8-8.933 9.955-8.933 5.156 0 9.466 3.868 9.955 8.933zm14.83 52.658c-.006 1.228-1.016 2.22-2.26 2.22h-45.1c-1.244 0-2.254-.992-2.26-2.22v-.415h49.62v.415zm0-1.786H25.21V54h49.62v15.622zm0-34.352a.79.79 0 000 .552V52.6H25.21V35.595v-4.894c.006-1.228 1.016-2.22 2.26-2.22h45.1c1.244 0 2.254.992 2.26 2.22v4.569z" fill="#A8C5DD"/><path d="M55.64 36.918c.024-2.726-1.943-5.074-4.661-5.563-2.718-.489-5.398 1.023-6.35 3.582-.953 2.56.099 5.423 2.491 6.787v7.993H53v-8.092a5.55 5.55 0 002.64-4.707zm-4.06 11.437h-3.06V41.35v-.109a.867.867 0 000-.138l-.07-.118a.602.602 0 00-.07-.1l-.13-.098-.08-.059a4.199 4.199 0 01-2.364-4.678c.406-1.912 2.09-3.297 4.068-3.348 1.978-.051 3.733 1.246 4.24 3.134A4.193 4.193 0 0152 40.628a.653.653 0 00-.35.444.732.732 0 00-.05.257l-.02 7.026z" fill="#032663"/><path d="M82.59 18.987c-1.657 0-3-1.326-3-2.96 0-1.636 1.343-2.961 3-2.961s3 1.325 3 2.96-1.343 2.96-3 2.96zm0-4.5a1.6 1.6 0 00-1.48.977 1.564 1.564 0 00.352 1.722c.46.45 1.15.583 1.747.336.598-.248.985-.827.981-1.466a1.59 1.59 0 00-1.6-1.57zM97 53.98c-1.657 0-3-1.325-3-2.96s1.343-2.96 3-2.96 3 1.325 3 2.96-1.343 2.96-3 2.96zm0-4.5a1.59 1.59 0 00-1.59 1.586 1.59 1.59 0 001.603 1.572 1.59 1.59 0 001.597-1.579c0-.42-.17-.823-.472-1.12A1.611 1.611 0 0097 49.48zM81.6 69.533c-1.657 0-3-1.326-3-2.96 0-1.636 1.343-2.961 3-2.961s3 1.325 3 2.96a2.94 2.94 0 01-.879 2.094 3.02 3.02 0 01-2.121.867zm0-4.5a1.59 1.59 0 00-1.59 1.585 1.59 1.59 0 001.603 1.573 1.59 1.59 0 001.597-1.58c0-.42-.17-.823-.472-1.12a1.611 1.611 0 00-1.138-.458zM94.05 40.46a3 3 0 01-2.772-1.827 2.932 2.932 0 01.65-3.226 3.03 3.03 0 013.27-.642A2.96 2.96 0 0197.05 37.5c0 1.635-1.343 2.96-3 2.96zm0-4.5a1.6 1.6 0 00-1.474.992 1.564 1.564 0 00.371 1.721c.467.447 1.16.57 1.756.313.595-.258.973-.845.957-1.486 0-.42-.17-.824-.472-1.12a1.611 1.611 0 00-1.138-.459v.04zM94.05 67.697a3 3 0 01-2.772-1.827 2.932 2.932 0 01.65-3.227 3.03 3.03 0 013.27-.641 2.96 2.96 0 011.852 2.735c0 1.635-1.343 2.96-3 2.96zm0-4.5a1.59 1.59 0 00-1.59 1.59 1.59 1.59 0 001.61 1.568 1.59 1.59 0 001.59-1.589 1.568 1.568 0 00-.461-1.139 1.61 1.61 0 00-1.149-.47v.04zM17.4 18.987c-1.657 0-3-1.326-3-2.96 0-1.636 1.343-2.961 3-2.961s3 1.325 3 2.96-1.343 2.96-3 2.96zm0-4.5a1.6 1.6 0 00-1.48.977 1.564 1.564 0 00.352 1.722c.46.45 1.15.583 1.747.336.598-.248.985-.827.981-1.466a1.59 1.59 0 00-1.6-1.57zM3 53.98c-1.657 0-3-1.325-3-2.96s1.343-2.96 3-2.96 3 1.325 3 2.96-1.343 2.96-3 2.96zm0-4.5a1.59 1.59 0 00-1.59 1.586 1.59 1.59 0 001.603 1.572A1.59 1.59 0 004.61 51.06c0-.42-.17-.823-.472-1.12A1.611 1.611 0 003 49.48zM18.39 69.533c-1.657 0-3-1.326-3-2.96 0-1.636 1.343-2.961 3-2.961s3 1.325 3 2.96a2.94 2.94 0 01-.879 2.094 3.02 3.02 0 01-2.121.867zm0-4.5a1.59 1.59 0 00-1.59 1.585 1.59 1.59 0 001.603 1.573A1.59 1.59 0 0020 66.61c0-.42-.17-.823-.472-1.12a1.611 1.611 0 00-1.138-.458zM5.94 40.46c-1.657 0-3-1.325-3-2.96s1.343-2.96 3-2.96 3 1.325 3 2.96a2.94 2.94 0 01-.879 2.093 3.02 3.02 0 01-2.121.868zm0-4.5a1.6 1.6 0 00-1.482.985c-.245.595-.1 1.277.366 1.725.465.448 1.16.573 1.757.317.596-.257.975-.845.959-1.487a1.59 1.59 0 00-1.6-1.579v.04zM5.94 67.697c-1.657 0-3-1.325-3-2.96s1.343-2.96 3-2.96 3 1.325 3 2.96a2.94 2.94 0 01-.879 2.093 3.02 3.02 0 01-2.121.867zm0-4.5a1.6 1.6 0 00-1.48.977 1.564 1.564 0 00.352 1.722c.46.451 1.15.584 1.747.336.598-.247.985-.826.981-1.466a1.568 1.568 0 00-.458-1.135 1.61 1.61 0 00-1.142-.473v.04z" fill="#2969F6"/></g></svg>
